X:45
T: Mahnlied
N: A0399C
O: Europa, Mitteleuropa, Deutschland
N: Werlin 1646 S. 2491.
R: Romanze, Ballade, Lied, religioeses Lied
M: 4/4
L: 1/8
K: D
z2D2D2D2 | =F2D2F3G | A6
A2 | _B2A2G=FG2 | A4z4 |
z2D2D2D2 | =F2D2F3G | A4z2
A2 | _B2A2G=FG2 | A4z2
A2 | A2A2A2=F2 | G4E4 | z2
G2G2A2 | =F3D=C4 |
z2A2c3_B | A2G2=F3G | A4z2
G2 | =F2F2G2E2 | D8

@@@ Tune index: 358
